src/icons/svg/copy.svg

<svg width="20" height="20" fill="none" xmlns="http://www.w3.org/2000/svg"><path d="M8.575 4.034c-.394.033-.612.085-.843.201a1.334 1.334 0 0 0-.514.496c-.092.177-.18.582-.205.935L6.99 6h1.199l.037-.338c.02-.186.05-.351.066-.367.069-.07.869-.093 3.208-.093 2.548 0 3.118.021 3.189.118.081.109.094.561.094 3.18 0 2.62-.013 3.07-.094 3.181-.027.038-.133.064-.356.089-.174.02-.319.038-.321.041-.003.003-.01.268-.017.589l-.011.583.3-.01c.802-.028 1.282-.27 1.498-.756.196-.441.217-.795.217-3.7-.001-2.368-.022-3.077-.103-3.407-.146-.593-.486-.906-1.122-1.034-.218-.044-.683-.053-3.074-.061-1.549-.004-2.955.004-3.125.019M5.168 7.036c-.245.048-.506.198-.72.412a1.415 1.415 0 0 0-.414.748c-.046.245-.046 6.363 0 6.608.051.274.19.525.414.748.223.224.474.363.748.414.245.046 6.363.046 6.608 0 .274-.051.525-.19.748-.414.224-.223.363-.474.414-.748.046-.245.046-6.363 0-6.608a1.415 1.415 0 0 0-.414-.748 1.415 1.415 0 0 0-.748-.414c-.223-.042-6.421-.04-6.636.002m6.535 1.261.097.098v6.21l-.097.098-.098.097h-6.21l-.098-.097-.097-.098v-6.21l.097-.098.098-.097h6.21l.098.097" fill="#19191C" fill-rule="evenodd"/></svg>

<svg width="20" height="20" viewBox="0 0 20 20" fill="none" xmlns="http://www.w3.org/2000/svg"><path d="M8.575 4.034 C 8.181 4.067,7.963 4.119,7.732 4.235 C 7.539 4.331,7.310 4.552,7.218 4.731 C 7.126 4.908,7.038 5.313,7.013 5.666 L 6.990 6.000 7.590 6.000 L 8.189 6.000 8.226 5.662 C 8.246 5.476,8.276 5.311,8.292 5.295 C 8.361 5.225,9.161 5.202,11.500 5.202 C 14.048 5.202,14.618 5.223,14.689 5.320 C 14.770 5.429,14.783 5.881,14.783 8.500 C 14.783 11.120,14.770 11.570,14.689 11.681 C 14.662 11.719,14.556 11.745,14.333 11.770 C 14.159 11.790,14.014 11.808,14.012 11.811 C 14.009 11.814,14.002 12.079,13.995 12.400 L 13.984 12.983 14.284 12.973 C 15.086 12.945,15.566 12.703,15.782 12.217 C 15.978 11.776,15.999 11.422,15.999 8.517 C 15.998 6.149,15.977 5.440,15.896 5.110 C 15.750 4.517,15.410 4.204,14.774 4.076 C 14.556 4.032,14.091 4.023,11.700 4.015 C 10.151 4.011,8.745 4.019,8.575 4.034 M5.168 7.036 C 4.923 7.084,4.662 7.234,4.448 7.448 C 4.224 7.671,4.085 7.922,4.034 8.196 C 3.988 8.441,3.988 14.559,4.034 14.804 C 4.085 15.078,4.224 15.329,4.448 15.552 C 4.671 15.776,4.922 15.915,5.196 15.966 C 5.441 16.012,11.559 16.012,11.804 15.966 C 12.078 15.915,12.329 15.776,12.552 15.552 C 12.776 15.329,12.915 15.078,12.966 14.804 C 13.012 14.559,13.012 8.441,12.966 8.196 C 12.915 7.922,12.776 7.671,12.552 7.448 C 12.329 7.224,12.078 7.085,11.804 7.034 C 11.581 6.992,5.383 6.994,5.168 7.036 M11.703 8.297 L 11.800 8.395 11.800 11.500 L 11.800 14.605 11.703 14.703 L 11.605 14.800 8.500 14.800 L 5.395 14.800 5.297 14.703 L 5.200 14.605 5.200 11.500 L 5.200 8.395 5.297 8.297 L 5.395 8.200 8.500 8.200 L 11.605 8.200 11.703 8.297 " fill="#19191C" stroke="none" fill-rule="evenodd"></path></svg>
